X: 5
T: The Kerry
R: polka
M: 2/4
L: 1/8
K: Dmaj
|: e/ |fA eA/e/ | fA eA | dc/d/ ef | e/f/e/d/ BA |
fA eA/e/ | fA eA | dc/d/ e/d/e/f/ | ed d3/ :|
|: e/ |fa fe | f/e/d BA | d/d/c/d/ ed/e/ | fa ba |
f>a fe | f/e/d BA | dc/d/ e/d/e/f/ | ed d3/ :|


Tune 39	Setting 12454

